X:1
T:Still Got The Blues (Transcribed)
T:Still Got The Blues
C:Gary Moore
Z:All Rights Reserved
L:1/16
M:4/4
K:C
V:1 treble nm="Alto Sax" snm="A Sax."
%%MIDI channel 4
%%MIDI program 65
V:1
 z8 z4 z2 (3Ade |"Dmin7" f6 fe"G7" d4 z2 (3Gcd |"Cmaj7" e6 ed"Fmaj7" c4 z2 (3ABc | %3
w: |||
"Bmin7" d6 c2"E " B4z2(3zAG |"Amin" A12 z4 |"Dmin7" z4 CA,CA,"G7" (3C4 D4 E4 | %6
w: ||Used ~to ~be so ~ea- s\- y|
"Cmaj7" z3 G, E2>D2"Fmaj7" (3:2:2D2ED2 C4 |"Bmin7" z2 C2 (3:2:2D2DDC"E " D2 E4(3zA,C | %8
w: to ~give my ~heart ~a- wa- y|but ~I've ~found out the ~hard ~way there's ~a|
"Amin" E4- (3:2:4E2D2DE (3:2:2D4 C2- C4 |"Dmin7" z3 E (3:2:2F2F-(3FFD"G7" (3:2:2F4 G2- G2 z2 | %10
w: ~price * ~you ~have ~to ~pa- y. *|But I fou- * nd that lo- ve *|
"Cmaj7" z3 G (3:2:2A4 E2"Fmaj7" DC/D/-D2 C4 |"Bmin7" z3 C (3:2:2D2DD2 D8 | %12
w: was ~n- o friend of mi- * ne.|But I ~should have known|
"A9" E4- (3E2G2A2"E " (3:2:2E2 D4 z4 |"Amin" z4 (3:2:2A4 E2"Emin" G4- (3G2E2G2 | %14
w: time * ~af- ter ti- me.|So lo- ng, * it was|
"Amin" A4- (3A2G2E2"D7" (3:2:2D4 C2z2(3zA,C |"F7" _E6- (3EDC"E7" D6- D=E |"Amin" C2A,2 z4 z8 | %17
w: ~so * ~long ~a- g\- o but ~I've|~still * ~got ~the ~blues * ~for|~yo- u.|
"Dmin7" z4 CA,CA,"G7" C2 D4 z2 |"Cmaj7" z3 G, (3:2:2E4 F2"Fmaj7" (3:2:2E2DD2 C4 | %19
w: Used ~to be so ea- sy|to ~fall ~in ~love ~a- ga- in.|
"Bmin7" z3 C (3:2:2D2DDC"E " D2E2z2(3zA,C |"Amin" E4- (3:2:4E2D2DE (3:2:2D4 C2- C4 | %21
w: But I've found out ~the hard ~way it's ~a|road * ~that ~leads ~to ~pa- in. *|
"Dmin7" z4 (3:2:2F2F-(3FFD"G7" (3:2:2F4 G2 A2 z2 |"Cmaj7" z3 G (3:2:2A4 E2"Fmaj7" DC/D/-D2 C4 | %23
w: I've ~found * out that lo- v\- e|was ~more ~than ~just ~a ~ga- * me|
"Bmin7" z3 C (3:2:2D2DD2 D4 z2 CD |"A9" E4- (3E2G2A2"E " (3:2:2E2 D4 z4 | %25
w: to play and to ~win but to|lose * just the sa- me.|
"Amin" z4 (3:2:2A4 E2 G2<"Emin"A2(3z2E2G2 |"Amin" A4- (3A2G2E2"D7" (3:2:2D4 C2z2(3zA,C | %27
w: S\- o lo- ng ~it ~was|~so * ~long ~a- g\- o but ~I|
"F7" _E6- (3EDC"E7" D2<D2 z3 =E |"Amin" C2 A,4 z2 z8 |"Bmin"z4(3:2:4z2D2DC"Emin" D4- (3D2C2D2 | %30
w: ~still * ~got ~the ~blu- es ~for|~yo- u.|So ~ma- ny ~years * since ~I've|
"Amin" E4 D4 (3:2:2D4 C2- C2 z2 |"Bmin" z4 (3:2:4D2D2DC"E " D2<E2(3z2E2G2 | %32
w: ~seen ~your ~fa- ce *|and here ~in ~my ~heart * there's ~an|
"Amin" A4 G4"Dmin" (3:2:2ED2D2 (3:2:2D2CG,2 |"Amin" A,8 z4 z2 (3Ade | %34
w: ~emp- ty ~spa- ce where you used to|~be. * * *|
"Dmin7" f6 fe"G7" d4 z2 (3Gcd |"Cmaj7" e6 ed"Fmaj7" c4 z2 (3ABc |"Bmin7" d6 dc"E " B4z2(3zAB | %37
w: |||
"Amin" c4 d4 e3 z z2 (3Ade |"Dmin7" f6 g2"G7" e2<d2z2(3Gcd |"Cmaj7" e4- eged"Fmaj7" c4 z2 (3ABc | %40
w: |||
"Bmin7" d4 d4 d2<d2- d2 (3:2:2z2 B |"E7" d'2>b2 age2- e4 z4 | %42
w: ||
"Amin" z4 (3:2:2A4 E2"Emin" G2A2(3z2E2G2 |"Amin" A4- (3A2G2E2"D7" (3:2:2D4 C2z2(3zA,C | %44
w: S\- o ~lo- ng ~it ~was|~so * ~long ~a- g\- o but ~I|
"F7" _E6- (3EDC"E7" D2<=E2 z3 E |"Amin" C2A,2- A,4 z4 z2 EG | %46
w: ~still * ~got ~the ~blu- es ~for|~yo- u. * Though the|
"Amin" A4- (3A2G2E2"Emin" (3:2:2D4 z2 z2 EG |"Amin" A4- (3A2G2E2"D7" (3:2:2D4 C2 z3 C | %48
w: days * come ~and go, there is|one * thing I kno- w, I've|
"F7" _E12- (3E2D2C2 |"Eaug" E4- E2C2"Amin" A,6 (3Ade |"Dmin7" f6 fe"G7" d4 z2 (3Gcd | %51
w: ~still * ~got ~the|~blues * for you. * * *||
"Cmaj7" e6 ed"Fmaj7" c4 z2 (3ABc |"Bmin7" d6 c2"E " B4z2(3zAB |"Amin" c4 d4"E7" e3 z z2 (3Ade | %54
w: |||
"Dmin7" f6 g2"G7" e2<d2z2(3Gcd |"Cmaj7" e2f2 e2d2"Fmaj7" c4 z2 (3ABc | %56
w: ||
"Bmin7" d4- d2<c2"E " B6 (3EAG |"Amin""E7" A12 z2 (3Ade |"Dmin7" f6 fe"G7" d4 z2 (3Gcd | %59
w: |||
"Cmaj7" e6 ed"Fmaj7" c4 z2 (3ABc |"Bmin7" d6 c2"E " B4z2(3zAB | %61
w: ||
"Amin" (3c2A2c2 (3d2B2d2"E7" e3 z z2 (3Ade |"Dmin7" f6 g2"G7" e2<d2z2(3zcd | %63
w: ||
"Cmaj7" e2f2 e2d2"Fmaj7" d2 c4 (3ABc |"Bmin7" d8 B4 G4 |"E7" E16 |"Amin" A8 c2B2 A2G2 | %67
w: ||||
"Emin7" E2D2 C2B,2 A,2G,2 F,2G,2 |"Amin" A,16 |] %69
w: ||

